public/static/icons/navbar/ic_carousel.svg

<svg height="24" viewBox="0 0 24 24" width="24" xmlns="http://www.w3.org/2000/svg"><g transform="translate(2 1.5)"><path d="m17.3913043 0c1.2006191 0 2.1739131.97329402 2.1739131 2.17391304v11.30434786c0 1.200619-.973294 2.173913-2.1739131 2.173913h-14.78260865c-1.20061902 0-2.17391304-.973294-2.17391304-2.173913v-11.30434786c0-1.20061902.97329402-2.17391304 2.17391304-2.17391304zm-3.3130434 5.50486963c-.3313709 0-.6.26862915-.6.6v3.44243465c0 .14533389.0527509.28572787.148454.39510277.2182092.24938195.5972668.27465245.8466487.05644325l1.9671055-1.72121733c.0200465-.01754065.0389026-.03639679.0564433-.05644325.2182092-.24938198.1929387-.62843955-.0564433-.84664878l-1.9671055-1.72121733c-.1093749-.09570303-.2497688-.14845398-.3951027-.14845398zm-8.15652177 0c-.14533389 0-.28572787.05275095-.39510276.14845398l-1.96710552 1.72121733c-.24938198.21820923-.27465248.5972668-.05644325.84664878.01754065.02004646.03639679.0389026.05644325.05644325l1.96710552 1.72121733c.24938197.2182092.62843955.1929387.84664878-.05644325.09570303-.1093749.14845398-.24976888.14845398-.39510277v-3.44243465c0-.33137085-.26862915-.6-.6-.6z"/><path d="m5.2 17.6521739c.8836556 0 1.6.7163444 1.6 1.6s-.7163444 1.6-1.6 1.6-1.6-.7163444-1.6-1.6.7163444-1.6 1.6-1.6zm4.8 0c.8836556 0 1.6.7163444 1.6 1.6s-.7163444 1.6-1.6 1.6-1.6-.7163444-1.6-1.6.7163444-1.6 1.6-1.6zm4.8 0c.8836556 0 1.6.7163444 1.6 1.6s-.7163444 1.6-1.6 1.6-1.6-.7163444-1.6-1.6.7163444-1.6 1.6-1.6z" opacity=".48"/></g></svg>

<svg xmlns="http://www.w3.org/2000/svg" width="24" height="24" viewBox="0 0 24 24">
  <g transform="translate(2 1.5)">
    <path d="M17.3913043,9.76996262e-15 C18.5919234,1.12380511e-14 19.5652174,0.973294022 19.5652174,2.17391304 L19.5652174,13.4782609 C19.5652174,14.6788799 18.5919234,15.6521739 17.3913043,15.6521739 L2.60869565,15.6521739 C1.40807663,15.6521739 0.434782609,14.6788799 0.434782609,13.4782609 L0.434782609,2.17391304 C0.434782609,0.973294022 1.40807663,9.99051275e-15 2.60869565,9.76996262e-15 L17.3913043,9.76996262e-15 Z M14.0782609,5.50486963 C13.74689,5.50486963 13.4782609,5.77349878 13.4782609,6.10486963 L13.4782609,6.10486963 L13.4782609,9.54730428 C13.4782609,9.69263817 13.5310118,9.83303215 13.6267149,9.94240705 C13.8449241,10.191789 14.2239817,10.2170595 14.4733636,9.9988503 L14.4733636,9.9988503 L16.4404691,8.27763297 C16.4605156,8.26009232 16.4793717,8.24123618 16.4969124,8.22118972 C16.7151216,7.97180774 16.6898511,7.59275017 16.4404691,7.37454094 L16.4404691,7.37454094 L14.4733636,5.65332361 C14.3639887,5.55762058 14.2235948,5.50486963 14.0782609,5.50486963 Z M5.92173913,5.50486963 C5.77640524,5.50486963 5.63601126,5.55762058 5.52663637,5.65332361 L3.55953085,7.37454094 C3.31014887,7.59275017 3.28487837,7.97180774 3.5030876,8.22118972 C3.52062825,8.24123618 3.53948439,8.26009232 3.55953085,8.27763297 L5.52663637,9.9988503 C5.77601834,10.2170595 6.15507592,10.191789 6.37328515,9.94240705 C6.46898818,9.83303215 6.52173913,9.69263817 6.52173913,9.54730428 L6.52173913,6.10486963 C6.52173913,5.77349878 6.25310998,5.50486963 5.92173913,5.50486963 Z"/>
    <path d="M5.2,17.6521739 C6.0836556,17.6521739 6.8,18.3685183 6.8,19.2521739 C6.8,20.1358295 6.0836556,20.8521739 5.2,20.8521739 C4.3163444,20.8521739 3.6,20.1358295 3.6,19.2521739 C3.6,18.3685183 4.3163444,17.6521739 5.2,17.6521739 Z M10,17.6521739 C10.8836556,17.6521739 11.6,18.3685183 11.6,19.2521739 C11.6,20.1358295 10.8836556,20.8521739 10,20.8521739 C9.1163444,20.8521739 8.4,20.1358295 8.4,19.2521739 C8.4,18.3685183 9.1163444,17.6521739 10,17.6521739 Z M14.8,17.6521739 C15.6836556,17.6521739 16.4,18.3685183 16.4,19.2521739 C16.4,20.1358295 15.6836556,20.8521739 14.8,20.8521739 C13.9163444,20.8521739 13.2,20.1358295 13.2,19.2521739 C13.2,18.3685183 13.9163444,17.6521739 14.8,17.6521739 Z" opacity=".48"/>
  </g>
</svg>
